icon-themes/colibre_svg/vcl/res/autoscroll_nw.svg

<svg viewBox="0 0 256 256" xmlns="http://www.w3.org/2000/svg"><path d="m7.9905587 0 63.9244693 15.997922 7.990559 7.99896-55.933911 55.992726-7.990559-7.998961-15.981117-63.9916862zm0 7.9989608 15.9811173 55.9927252 39.952794-39.994804zm68.0446013 40.0104272c7.157367 0 14.312625 2.719805 19.773509 8.186436 10.921771 10.93326 10.921771 28.670966 0 39.604226-10.921776 10.93327-28.625242 10.93327-39.547017 0-10.921776-10.93326-10.921776-28.670966 0-39.604226 5.460883-5.466631 12.616141-8.186436 19.773508-8.186436zm0 7.99896c-5.112407 0-10.223304 1.938256-14.123936 5.842992-7.80127 7.809471-7.80127 20.483723 0 28.293197 7.801271 7.809473 20.446602 7.809473 28.247872 0 7.80127-7.809474 7.80127-20.483726 0-28.293197-3.900631-3.904736-9.011528-5.842992-14.123936-5.842992z" fill="#fff"/><path d="m63.92447 23.996882-39.952794 39.994804-15.9811173-55.9927252zm26.232716 37.862197c7.801271 7.809471 7.801271 20.471121 0 28.280594-7.80127 7.809474-20.449621 7.809474-28.250892 0-7.80127-7.809473-7.80127-20.471123 0-28.280594 7.801271-7.809472 20.449622-7.809472 28.250892 0z"/></svg>

<svg xmlns="http://www.w3.org/2000/svg" viewBox="0 0 256 256">
  <path
     style="fill:#ffffff"
     d="M 7.9905587,0 71.915028,15.997922 79.905587,23.996882 23.971676,79.989608 15.981117,71.990647 0,7.9989608 Z m 0,7.9989608 L 23.971676,63.991686 63.92447,23.996882 Z M 76.03516,48.009388 c 7.157367,0 14.312625,2.719805 19.773509,8.186436 10.921771,10.93326 10.921771,28.670966 0,39.604226 -10.921776,10.93327 -28.625242,10.93327 -39.547017,0 -10.921776,-10.93326 -10.921776,-28.670966 0,-39.604226 5.460883,-5.466631 12.616141,-8.186436 19.773508,-8.186436 z m 0,7.99896 c -5.112407,0 -10.223304,1.938256 -14.123936,5.842992 -7.80127,7.809471 -7.80127,20.483723 0,28.293197 7.801271,7.809473 20.446602,7.809473 28.247872,0 7.80127,-7.809474 7.80127,-20.483726 0,-28.293197 -3.900631,-3.904736 -9.011528,-5.842992 -14.123936,-5.842992 z"
     />
  <path
     style="fill:#000000"
     d="M 63.92447,23.996882 23.971676,63.991686 7.9905587,7.9989608 Z m 26.232716,37.862197 c 7.801271,7.809471 7.801271,20.471121 0,28.280594 -7.80127,7.809474 -20.449621,7.809474 -28.250892,0 -7.80127,-7.809473 -7.80127,-20.471123 0,-28.280594 7.801271,-7.809472 20.449622,-7.809472 28.250892,0 z"
     />
</svg>
